!!! OTL: Literature89
!!! Chapter: 5
!!! Section: III
!!! Page: 365
!!! Mode: 
!!! Encoder: DJB
**kern
*staff1
*I"Piano
=1-
*clefG2
*k[b-e-a-]
*E-:
*M4/8
16.e-/LL
32d/K
16e-/
16f/
16.g/
32f/K
16g/
16a-/JJ
=2
16.b-\LL
32an\K
16b-\
16cc\J
8b-\
24b-\L
24cc\
24dd\JJ
=3
8ee-\L
8g\
16b-\L
16b-\
16a-\
16g\JJ
=4
16g/LL
16f/
16.f/
32en/JK
8f/
24e-/L
24d/
24c/JJ
=5
16.B-/LL
32An/K
16B-/
16c/
16.d/
32c/K
16d/
16e-/JJ
=6
!!linebreak:original
16.f/LL
32en/K
16f/
16g/
16a-/
16cc/
16b-/
16a-/JJ
=7
16g/LL
16b-/J
8e-/
16f/L
16a-/J
8d/J
=8
16f/LL
16e-/
16.e-/
32d/JJk
4e-/
=9
8.ee-\L
16dd\L
16cc\J
8.cc\J
=10
16cc\LK
8.ee-\
16cc\K
8.ee-\J
=11
8.ee-\L
16ee-\K
8dd\
8cc\J
=12
8b-/L
8a-/
16.g/L
32e-/K
16c/
16B-/JJ
=13
!!linebreak:original
16.B-/LL
32A-/K
16B-/
16c/
16.d/
32c/K
16d/
16e-/JJ
=14
16.f/LL
32en/K
16f/
16g/
16a-/
16cc/
16b-/
16a-/JJ
=15
16.g/LL
32b-/K
16e-/
16g/
16.f/
32a-/K
16d/
16f/JJ
=16
16f/LL
16e-/
16.e-/
32d/JJk
4e-/
==
*-
